X: 122010
T: MY LOVE IS BUT A LASSIE YET
P: Same figure.
%R: reel, march
B: James Kerr "Merry Melodies" v.1 p.22 s.0 #10
Z: 2017 John Chambers <jc:trillian.mit.edu>
M: 2/4
L: 1/16
K: D
|: (dc) |\
d2D2F2A2 | d2D2D2 (dc) |\
d2D2F2A2 | e2E2E2 (dc) |\
d2D2F2A2 | B2g2f2e2 |\
dcBA Bcde | f2d2d2 :|
|: (fg) |\
va3vf ug3ue | f2d2d2 (fg) |\
va3vf (gfga) | b2e2e2 (fg) |\
a3fg3e | f2d2e3c |\
dcBA Bcde | f2d2d2 :|

%%sep 1 1 500
%%sep 1 1 500

